X: 14757
T: Gan Ainm
R: polka
M: 2/4
K: Dmajor
F/G/|AAA f/e/|d/c/d/B/ AF/A/|AB/c/ d/e/f/a/|gee F/G/|
A/G/A/B/ Af/e/|d/c/d/B/ AF|G/F/G/A/ B/A/B/c/|dDD:|
F|AB A/F/D/F/|BBB G/F/|AB A/F/D/F/|FEE F/G/|
AB A/F/D/F/|B/c/d/B/ A/F/D/F/|G/F/G/A/ B/A/B/c/|dDD:|

